X: 253
T: Mrs P. Campbell's Strathspey
R: strathspey
B: William Shepherd "2nd Collection" 1800 p.25 #3
F: http://imslp.org/wiki/File:PMLP73094-Shepherd_Collections_HMT.pdf
C: William Shepherd (17??-1812)
Z: 2012 John Chambers <jc:trillian.mit.edu>
M: C
L: 1/8
K: D
F |\
D>ATF>A D>dA>=F | E>=cG>c E>=C E/=F/G/E/ |\
D>dF>d D>d=f>d | {f}e>dc>e d/d/d Td :|
A |\
Td>e=f>e d>af>d | T=c>dc>G c>ge>c |\
Td>e=f>e d>af>d | e>cA>c d/d/d TdA |
Td>e=f>e d>af>d | T=c>dc>G c>ge>c |\
a>=fg>e f>dA>=F | =C>=cG>E D/D/D D |]
